svg/l/EC.svg

<svg width="32" height="24" viewBox="0 0 32 24" fill="none" xmlns="http://www.w3.org/2000/svg">
<g clip-path="url(#clip0_270_67416)">
<rect width="32" height="24" fill="white"/>
<path fill-rule="evenodd" clip-rule="evenodd" d="M0 0V24H32V0H0Z" fill="#2E42A5"/>
<mask id="mask0_270_67416" style="mask-type:luminance" maskUnits="userSpaceOnUse" x="0" y="0" width="32" height="24">
<path fill-rule="evenodd" clip-rule="evenodd" d="M0 0V24H32V0H0Z" fill="white"/>
</mask>
<g mask="url(#mask0_270_67416)">
<path fill-rule="evenodd" clip-rule="evenodd" d="M0 0V12H32V0H0Z" fill="#FECA00"/>
<path fill-rule="evenodd" clip-rule="evenodd" d="M0 18V24H32V18H0Z" fill="#E31D1C"/>
<path fill-rule="evenodd" clip-rule="evenodd" d="M9.71704 5.71424C9.71704 5.71424 13.8733 3.83662 14.2511 4.04993C14.6288 4.26323 14.72 4.87121 15.0461 4.87121C15.3723 4.87121 16.0288 4.67909 16.3029 4.67909C16.5771 4.67909 16.848 4.87121 16.848 4.87121H18.0187V4.22022L23.3269 5.71424C23.3269 5.71424 20.2309 6.11872 19.9975 6.11872C19.7642 6.11872 19.9975 6.45234 19.9975 6.45234C19.9975 6.45234 19.556 6.11872 18.8837 6.11872C18.2114 6.11872 16.848 6.81329 16.848 6.81329L17.3436 7.87944L16.848 8.19294L16.3029 7.87944C16.3029 7.87944 16.3382 7.00268 16.1035 7.00268C15.8687 7.00268 15.6975 7.56593 15.6975 7.87944C15.6975 8.19294 15.0461 8.19294 15.0461 8.19294L15.3371 7.60604C15.3371 7.60604 15.6263 6.633 15.0461 6.633C14.4659 6.633 11.8213 6.11872 11.8213 6.11872L11.145 6.45234L11.3868 5.71424H9.71704Z" fill="#7B2900"/>
<path fill-rule="evenodd" clip-rule="evenodd" d="M11.5013 15.7742C10.8526 14.3163 11.5013 11.0865 11.5013 11.0865L12.762 11.7475C12.6124 12.5013 12.589 13.9258 13.0608 15.0907C13.5325 16.2557 15.3158 17.1732 15.3158 17.1732C15.3158 17.1732 16.2154 17.3738 14.8485 17.5183C13.4817 17.6628 12.15 17.232 11.5013 15.7742ZM14.7333 21.5167C14.3272 21.5167 15.5456 18.8077 15.5456 18.8077L15.9216 18.0551C15.9216 18.0551 15.9676 21.2439 15.7101 21.5167C15.5451 21.6916 15.3571 21.6422 15.1364 21.5843C15.0129 21.5518 14.8791 21.5167 14.7333 21.5167Z" fill="#E31D1C"/>
<path fill-rule="evenodd" clip-rule="evenodd" d="M10.3269 15.2981C9.78339 13.1211 10.6313 10.1649 10.6313 10.1649L11.4846 10.7746C11.3592 11.9002 11.3592 14.8111 12.081 16.0724C12.8028 17.3336 15.9682 17.8634 15.9682 17.8634C15.9682 17.8634 15.3437 18.3251 14.1985 18.5409C13.0534 18.7568 10.8704 17.4751 10.3269 15.2981ZM13.9558 21.2171L14.4579 19.4248L15.1655 18.5589H15.6743C15.6743 18.5589 14.958 21.6396 14.4579 21.6396C14.133 21.6396 14.2302 21.4613 14.3382 21.2632C14.3965 21.1564 14.4579 21.0439 14.4579 20.9504C14.4579 20.6837 13.9558 21.2171 13.9558 21.2171Z" fill="#2E42A5"/>
<path fill-rule="evenodd" clip-rule="evenodd" d="M9.49788 15.671C9.22819 13.7972 9.76757 9.31995 9.76757 9.31995L10.6209 9.92963C10.2352 11.0141 10.3546 14.126 10.6209 15.671C10.8871 17.2161 13.4065 18.1475 13.4065 18.1475C13.4065 18.1475 12.782 18.6091 11.6368 18.825C10.4916 19.0408 9.76757 17.5449 9.49788 15.671ZM13.6865 19.4155C13.2006 19.4155 13.8983 18.7189 13.8983 18.7189H15.0615C15.0615 18.7189 14.6635 19.7029 14.1723 19.7029C13.9261 19.7029 13.9267 19.6306 13.9274 19.5586C13.9281 19.487 13.9288 19.4155 13.6865 19.4155Z" fill="#FECA00"/>
<path fill-rule="evenodd" clip-rule="evenodd" d="M20.3654 15.7742C21.0141 14.3163 20.3654 11.0865 20.3654 11.0865L19.1047 11.7475C19.2543 12.5013 19.2777 13.9258 18.8059 15.0907C18.3342 16.2557 16.5509 17.1732 16.5509 17.1732C16.5509 17.1732 15.6513 17.3738 17.0182 17.5183C18.385 17.6628 19.7167 17.232 20.3654 15.7742ZM17.1334 21.5167C17.5395 21.5167 16.3211 18.8077 16.3211 18.8077L15.9451 18.0551C15.9451 18.0551 15.8991 21.2439 16.1566 21.5167C16.3216 21.6916 16.5096 21.6422 16.7303 21.5843C16.8538 21.5518 16.9876 21.5167 17.1334 21.5167Z" fill="#E31D1C"/>
<path fill-rule="evenodd" clip-rule="evenodd" d="M21.5398 15.2981C22.0833 13.1211 21.2354 10.1649 21.2354 10.1649L20.3821 10.7746C20.5075 11.9002 20.5075 14.8111 19.7857 16.0724C19.0639 17.3336 15.8985 17.8634 15.8985 17.8634C15.8985 17.8634 16.523 18.3251 17.6682 18.5409C18.8133 18.7568 20.9963 17.4751 21.5398 15.2981ZM17.9109 21.2171L17.4088 19.4248L16.7012 18.5589H16.1924C16.1924 18.5589 16.9087 21.6396 17.4088 21.6396C17.7337 21.6396 17.6365 21.4613 17.5285 21.2632C17.4702 21.1564 17.4088 21.0439 17.4088 20.9504C17.4088 20.6837 17.9109 21.2171 17.9109 21.2171Z" fill="#2E42A5"/>
<path fill-rule="evenodd" clip-rule="evenodd" d="M22.3688 15.671C22.6385 13.7972 22.0991 9.31995 22.0991 9.31995L21.2458 9.92963C21.6315 11.0141 21.5121 14.126 21.2458 15.671C20.9796 17.2161 18.4602 18.1475 18.4602 18.1475C18.4602 18.1475 19.0847 18.6091 20.2299 18.825C21.3751 19.0408 22.0991 17.5449 22.3688 15.671ZM18.1802 19.4155C18.6661 19.4155 17.9684 18.7189 17.9684 18.7189H16.8052C16.8052 18.7189 17.2032 19.7029 17.6944 19.7029C17.9406 19.7029 17.94 19.6306 17.9393 19.5586C17.9386 19.487 17.9379 19.4155 18.1802 19.4155Z" fill="#FECA00"/>
<path d="M10.2028 10.446L10.2943 9.89364L11.8952 9.99728L10.6809 8.73936L11.0901 8.35018L12.7324 10.0515L11.3283 7.41148L11.8137 7.12279L13.092 9.00317L12.4823 7.04867L13.0066 6.84015L14.9722 10.7602L14.2182 10.7114L14.2921 10.9482L14.934 11.1184L14.7878 11.6618L14.4901 11.5829L14.7681 12.4742L14.2851 11.7637L15.1261 13.3442L13.0598 11.2036L10.2028 10.446Z" fill="#6FAE21"/>
<path d="M21.9261 10.446L21.8346 9.89364L20.2337 9.99728L21.448 8.73936L21.0388 8.35018L19.3965 10.0515L20.8006 7.41148L20.3152 7.12279L19.0369 9.00317L19.6466 7.04867L19.1223 6.84015L17.1567 10.7602L17.9107 10.7114L17.8369 10.9482L17.1949 11.1184L17.3412 11.6618L17.6388 11.5829L17.3608 12.4742L17.8438 11.7637L17.0028 13.3442L19.0691 11.2036L21.9261 10.446Z" fill="#6FAE21"/>
<path d="M11.0667 21.3113L10.6544 20.9254L22.8448 8.09061L23.2571 8.47648L11.0667 21.3113Z" fill="#171401"/>
<path fill-rule="evenodd" clip-rule="evenodd" d="M22.5352 8.1894L23.1602 8.77884L23.5125 7.80441L22.5352 8.1894Z" fill="#CECECC"/>
<path fill-rule="evenodd" clip-rule="evenodd" d="M11.3764 21.3086L10.6585 20.8366L10.426 21.8041L11.3764 21.3086Z" fill="#CECECC"/>
<path d="M10.16 19.3988L9.74768 19.0129L21.9381 6.1781L22.3504 6.56397L10.16 19.3988Z" fill="#171401"/>
<path fill-rule="evenodd" clip-rule="evenodd" d="M21.6284 6.27689L22.2534 6.86633L22.6057 5.89191L21.6284 6.27689Z" fill="#CECECC"/>
<path fill-rule="evenodd" clip-rule="evenodd" d="M10.4697 19.3961L9.75179 18.9241L9.51922 19.8916L10.4697 19.3961Z" fill="#CECECC"/>
<path d="M21.2532 21.3113L21.6655 20.9254L9.47516 8.09061L9.06285 8.47648L21.2532 21.3113Z" fill="#171401"/>
<path fill-rule="evenodd" clip-rule="evenodd" d="M9.78479 8.1894L9.15976 8.77884L8.80748 7.80441L9.78479 8.1894Z" fill="#CECECC"/>
<path fill-rule="evenodd" clip-rule="evenodd" d="M20.9435 21.3086L21.6614 20.8366L21.894 21.8041L20.9435 21.3086Z" fill="#CECECC"/>
<path d="M22.3866 19.8488L22.799 19.4629L10.6086 6.62811L10.1963 7.01398L22.3866 19.8488Z" fill="#171401"/>
<path fill-rule="evenodd" clip-rule="evenodd" d="M10.9182 6.72691L10.2932 7.31634L9.9409 6.34192L10.9182 6.72691Z" fill="#CECECC"/>
<path fill-rule="evenodd" clip-rule="evenodd" d="M22.077 19.8461L22.7948 19.3741L23.0274 20.3416L22.077 19.8461Z" fill="#CECECC"/>
<rect x="13.6666" y="16.375" width="4.53333" height="2.25" fill="#B74E01"/>
<path d="M15.9477 17.2868C16.8465 17.2868 17.6233 16.7088 18.1627 15.852C18.7043 14.9919 19.031 13.8191 19.031 12.5368C19.031 11.2544 18.7043 10.0817 18.1627 9.22159C17.6233 8.36479 16.8465 7.78677 15.9477 7.78677C15.0489 7.78677 14.2721 8.36479 13.7327 9.22159C13.1912 10.0817 12.8644 11.2544 12.8644 12.5368C12.8644 13.8191 13.1912 14.9919 13.7327 15.852C14.2721 16.7088 15.0489 17.2868 15.9477 17.2868Z" fill="#7DB8FF" stroke="#FECA00" stroke-width="0.5"/>
<mask id="mask1_270_67416" style="mask-type:luminance" maskUnits="userSpaceOnUse" x="12" y="7" width="8" height="11">
<path d="M15.9477 17.2868C16.8465 17.2868 17.6233 16.7088 18.1627 15.852C18.7043 14.9919 19.031 13.8191 19.031 12.5368C19.031 11.2544 18.7043 10.0817 18.1627 9.22159C17.6233 8.36479 16.8465 7.78677 15.9477 7.78677C15.0489 7.78677 14.2721 8.36479 13.7327 9.22159C13.1912 10.0817 12.8644 11.2544 12.8644 12.5368C12.8644 13.8191 13.1912 14.9919 13.7327 15.852C14.2721 16.7088 15.0489 17.2868 15.9477 17.2868Z" fill="white" stroke="white" stroke-width="0.5"/>
</mask>
<g mask="url(#mask1_270_67416)">
<path fill-rule="evenodd" clip-rule="evenodd" d="M12.8794 12.6099H14.4917C14.4917 12.6099 15.6001 12.8554 15.0459 13.0486C14.4917 13.2418 14.4917 13.3057 14.4917 13.5812C14.4917 13.8568 14.4917 14.8651 14.4917 15.0805C14.4917 15.2958 14.886 15.7568 14.055 15.7568C13.2241 15.7568 12.5082 12.3408 12.5082 12.3408L12.8794 12.6099Z" fill="#6FAE21"/>
<path fill-rule="evenodd" clip-rule="evenodd" d="M19.1791 12.7955C19.1791 12.7955 17.6814 13.0913 16.6554 12.9927C15.6294 12.8941 15.1791 12.7955 15.1791 12.7955C15.1791 12.7955 15.8942 13.1674 16.1484 13.4792C16.4025 13.7909 16.9229 14.3299 17.4533 14.3299C17.9838 14.3299 18.797 14.833 18.797 14.833L19.1791 12.7955Z" fill="#6FAE21"/>
<path fill-rule="evenodd" clip-rule="evenodd" d="M13.3187 10.1356C13.3187 10.1356 14.5533 10.3742 14.8507 10.7315C15.148 11.0888 14.4579 11.446 16.2569 11.0888C18.0559 10.7315 19.4839 10.1083 19.4839 11.0888C19.4839 12.0693 19.3267 12.9725 18.5526 12.9725C17.7784 12.9725 17.4696 12.9725 15.1087 12.9725C12.7477 12.9725 11.4607 13.6946 11.626 12.5327C11.7913 11.3708 13.3187 10.1356 13.3187 10.1356Z" fill="#F7FCFF"/>
</g>
</g>
</g>
<defs>
<clipPath id="clip0_270_67416">
<rect width="32" height="24" fill="white"/>
</clipPath>
</defs>
</svg>

<svg width="32" height="24" fill="none" xmlns="http://www.w3.org/2000/svg">
  <mask id="a" maskUnits="userSpaceOnUse" x="0" y="0" width="32" height="24">
    <path fill="#fff" d="M0 0h32v24H0z"/>
  </mask>
  <g mask="url(#a)">
    <path fill-rule="evenodd" clip-rule="evenodd" d="M0 0v24h32V0H0z" fill="#2E42A5"/>
    <mask id="b" maskUnits="userSpaceOnUse" x="0" y="0" width="32" height="24">
      <path fill-rule="evenodd" clip-rule="evenodd" d="M0 0v24h32V0H0z" fill="#fff"/>
    </mask>
    <g mask="url(#b)">
      <path fill-rule="evenodd" clip-rule="evenodd" d="M0 0v12h32V0H0z" fill="#FECA00"/>
      <path fill-rule="evenodd" clip-rule="evenodd" d="M0 18v6h32v-6H0z" fill="#E31D1C"/>
      <path fill-rule="evenodd" clip-rule="evenodd" d="M9.717 5.714s4.156-1.877 4.534-1.664c.378.213.469.821.795.821.326 0 .983-.192 1.257-.192.274 0 .545.192.545.192h1.17v-.65l5.309 1.493s-3.096.405-3.33.405c-.233 0 0 .333 0 .333s-.441-.333-1.113-.333c-.673 0-2.036.694-2.036.694l.496 1.066-.496.314-.545-.314s.035-.876-.2-.876c-.234 0-.406.563-.406.876 0 .314-.65.314-.65.314l.29-.587s.29-.973-.29-.973c-.581 0-3.226-.514-3.226-.514l-.676.333.242-.738h-1.67z" fill="#7B2900"/>
      <path fill-rule="evenodd" clip-rule="evenodd" d="M11.501 15.774c-.648-1.458 0-4.688 0-4.688l1.261.662c-.15.753-.173 2.178.299 3.343s2.255 2.082 2.255 2.082.9.2-.468.345c-1.366.145-2.698-.286-3.347-1.744zm3.232 5.743c-.406 0 .813-2.71.813-2.71l.376-.752s.046 3.189-.212 3.462c-.165.175-.353.125-.574.067a1.563 1.563 0 00-.403-.067z" fill="#E31D1C"/>
      <path fill-rule="evenodd" clip-rule="evenodd" d="M10.327 15.298c-.544-2.177.304-5.133.304-5.133l.854.61c-.126 1.125-.126 4.036.596 5.297.722 1.262 3.887 1.791 3.887 1.791s-.624.462-1.77.678c-1.145.216-3.328-1.066-3.871-3.243zm3.629 5.92l.502-1.793.707-.866h.51s-.717 3.08-1.217 3.08c-.325 0-.228-.178-.12-.376.059-.107.12-.22.12-.313 0-.266-.502.267-.502.267z" fill="#2E42A5"/>
      <path fill-rule="evenodd" clip-rule="evenodd" d="M9.498 15.671c-.27-1.874.27-6.351.27-6.351l.853.61c-.386 1.084-.266 4.196 0 5.741s2.785 2.477 2.785 2.477-.624.461-1.77.677c-1.144.216-1.868-1.28-2.138-3.154zm4.189 3.745c-.486 0 .211-.697.211-.697h1.164s-.398.984-.89.984c-.246 0-.245-.072-.245-.144.001-.072.002-.143-.24-.143z" fill="#FECA00"/>
      <path fill-rule="evenodd" clip-rule="evenodd" d="M20.365 15.774c.65-1.458 0-4.688 0-4.688l-1.26.662c.15.753.173 2.178-.3 3.343-.47 1.165-2.254 2.082-2.254 2.082s-.9.2.467.345c1.367.145 2.699-.286 3.347-1.744zm-3.232 5.743c.407 0-.812-2.71-.812-2.71l-.376-.752s-.046 3.189.212 3.462c.165.175.353.125.573.067.124-.032.258-.067.403-.067z" fill="#E31D1C"/>
      <path fill-rule="evenodd" clip-rule="evenodd" d="M21.54 15.298c.543-2.177-.305-5.133-.305-5.133l-.853.61c.125 1.125.125 4.036-.596 5.297-.722 1.262-3.888 1.791-3.888 1.791s.625.462 1.77.678c1.145.216 3.328-1.066 3.872-3.243zm-3.63 5.92l-.501-1.793-.708-.866h-.509s.717 3.08 1.217 3.08c.325 0 .228-.178.12-.376-.059-.107-.12-.22-.12-.313 0-.266.502.267.502.267z" fill="#2E42A5"/>
      <path fill-rule="evenodd" clip-rule="evenodd" d="M22.369 15.671c.27-1.874-.27-6.351-.27-6.351l-.853.61c.386 1.084.266 4.196 0 5.741s-2.786 2.477-2.786 2.477.625.461 1.77.677c1.145.216 1.87-1.28 2.139-3.154zm-4.189 3.745c.486 0-.212-.697-.212-.697h-1.163s.398.984.89.984c.246 0 .245-.072.244-.144 0-.072-.001-.143.241-.143z" fill="#FECA00"/>
      <path d="M10.203 10.446l.091-.552 1.601.103-1.214-1.258.41-.389 1.641 1.702-1.404-2.64.486-.29 1.278 1.881-.61-1.954.525-.209 1.965 3.92-.754-.049.074.237.642.17-.146.544-.298-.08.278.892-.483-.71.841 1.58-2.066-2.14-2.857-.758zm11.723 0l-.091-.552-1.601.103 1.214-1.258-.41-.389-1.642 1.702 1.405-2.64-.486-.29-1.278 1.881.61-1.954-.525-.209-1.965 3.92.754-.049-.074.237-.642.17.146.544.298-.08-.278.892.483-.71-.841 1.58 2.066-2.14 2.857-.758z" fill="#6FAE21"/>
      <path d="M11.067 21.311l-.413-.386 12.19-12.834.413.385-12.19 12.835z" fill="#171401"/>
      <path fill-rule="evenodd" clip-rule="evenodd" d="M22.535 8.19l.625.589.352-.975-.977.385zM11.376 21.309l-.717-.472-.233.967.95-.495z" fill="#CECECC"/>
      <path d="M10.16 19.399l-.412-.386 12.19-12.835.412.386-12.19 12.835z" fill="#171401"/>
      <path fill-rule="evenodd" clip-rule="evenodd" d="M21.628 6.277l.625.59.353-.975-.978.385zM10.47 19.396l-.718-.472-.233.968.95-.496z" fill="#CECECC"/>
      <path d="M21.253 21.311l.413-.386L9.476 8.091l-.413.385 12.19 12.835z" fill="#171401"/>
      <path fill-rule="evenodd" clip-rule="evenodd" d="M9.785 8.19l-.625.589-.353-.975.978.385zm11.159 13.119l.717-.472.233.967-.95-.495z" fill="#CECECC"/>
      <path d="M22.387 19.849l.412-.386-12.19-12.835-.413.386 12.19 12.835z" fill="#171401"/>
      <path fill-rule="evenodd" clip-rule="evenodd" d="M10.918 6.727l-.625.59-.352-.975.977.385zm11.159 13.119l.718-.472.232.968-.95-.496z" fill="#CECECC"/>
      <path fill="#B74E01" d="M13.667 16.375H18.2v2.25h-4.533z"/>
      <path d="M15.948 17.287c.898 0 1.675-.578 2.215-1.435.541-.86.868-2.033.868-3.315 0-1.283-.327-2.455-.868-3.315-.54-.857-1.317-1.435-2.215-1.435-.9 0-1.676.578-2.215 1.435-.542.86-.869 2.032-.869 3.315 0 1.282.327 2.455.869 3.315.54.857 1.316 1.435 2.215 1.435z" fill="#7DB8FF" stroke="#FECA00" stroke-width=".5"/>
      <mask id="c" maskUnits="userSpaceOnUse" x="12" y="7" width="8" height="11">
        <path d="M15.948 17.287c.898 0 1.675-.578 2.215-1.435.541-.86.868-2.033.868-3.315 0-1.283-.327-2.455-.868-3.315-.54-.857-1.317-1.435-2.215-1.435-.9 0-1.676.578-2.215 1.435-.542.86-.869 2.032-.869 3.315 0 1.282.327 2.455.869 3.315.54.857 1.316 1.435 2.215 1.435z" fill="#fff" stroke="#fff" stroke-width=".5"/>
      </mask>
      <g mask="url(#c)" fill-rule="evenodd" clip-rule="evenodd">
        <path d="M12.88 12.61h1.612s1.108.245.554.439c-.554.193-.554.257-.554.532v1.5c0 .215.394.676-.437.676-.83 0-1.547-3.416-1.547-3.416l.371.269zm6.3.186s-1.499.295-2.525.197c-1.026-.099-1.476-.197-1.476-.197s.715.371.97.683c.253.312.774.85 1.304.85s1.344.504 1.344.504l.382-2.037z" fill="#6FAE21"/>
        <path d="M13.319 10.136s1.234.238 1.532.596c.297.357-.393.714 1.406.357s3.227-.98 3.227 0-.157 1.883-.931 1.883h-3.444c-2.361 0-3.648.723-3.483-.44.165-1.161 1.693-2.396 1.693-2.396z" fill="#F7FCFF"/>
      </g>
    </g>
  </g>
</svg>
